!!!COM: Bach, Johann Sebastian!!!COM: Bach, Johann Sebastian
!!!OTL: 157. Wo Gott zum Haus nicht gibt!!!OTL: 157. Wo Gott zum Haus nicht gibt
!!!ONM: No. 157!!!ONM: No. 157
!!!OCL: Erk!!!OCL: Erk
!!!SCA: BWV 438!!!SCA: BWV 438
!!!YOE: Riemenschneider, Albert!!!YOE: Riemenschneider, Albert
!!!OPR: 371 Harmonized Chorales and 69 Chorale Melodies with Figured Bass!!!OPR: 371 Harmonized Chorales and 69 Chorale Melodies with Figured Bass
!!!OPT: Bach Chorale Harmonizations!!!OPT: Bach Chorale Harmonizations
**kern	**kern	**kern	**kern	**harm	**root	**kern
!bass	!tenor	!alto	!sprno	!	!	!
*Iorgan	*Iorgan	*Iorgan	*Iorgan	*Iorgan	*Iorgan	*
*k[b-]	*k[b-]	*k[b-]	*k[b-]	*k[b-]	*k[b-]	*k[b-]
*F:	*F:	*F:	*F:	*F:	*F:	*F:
*met(C)	*met(C)	*met(C)	*met(C)	*met(C)	*met(C)	*met(C)
*M4/4	*M4/4	*M4/4	*M4/4	*M4/4	*M4/4	*M4/4
*MM60	*MM60	*MM60	*MM60	*MM60	*MM60	*MM60
8F	8A	4c	4f	I	4FF	4F 4a 4cc
8G	8B-	.	.	.	.	.
=1	=1	=1	=1	=1	=1	=1
8A	8c	8f	4cc	Ib	4FF	4f 4A 4cc
8B-	8d	8g	.	.	.	.
4c	4e	8a	8cc	iiib	8AA	8a 8C 8ee
.	.	[8g	8b-	V7	8CC	8C 8e 8g 8b-
4F	4c	8g]	4a	I	4FF	4F 4a 4cc
.	.	[8f	.	.	.	.
4C	4c	8f]	4g	V	4CC	4C 4e 4g
.	.	8e	.	.	.	.
=2	=2	=2	=2	=2	=2	=2
4F	4c	8f	4a	I	4FF	4F 4a 4cc
.	.	8e	.	.	.	.
4G	4G	4d	4bn	II	4GG	4G 4b 4dd
4C;	4G;	4e;	4cc;	V;	4CC;	4C; 4e; 4g;
4E	4c	[4g	4cc	Vb	4CC	4c 4E 4g
=3	=3	=3	=3	=3	=3	=3
4F	[4c	8g]	4a	I	4FF	4F 4a 4cc
.	.	8f	.	.	.	.
8E	8c]	8g	4cc	Vb	8CC	8c 8E 8g
8C	8e	[8a	.	iiib	8AA	8a 8C 8ee
8D	8f	8a]	4b-	IV7b	8BB-	8b- 8D 8ff 8aa
8G	8d	16g	.	ii	8GG	8G 8b- 8dd
.	.	16f	.	.	.	.
8E	4c	[4g	4cc	Vb	4CC	4c 4E 4g
8C	.	.	.	.	.	.
=4	=4	=4	=4	=4	=4	=4
4F	4c	8g]	4a	I	4FF	4F 4a 4cc
.	.	4f	.	.	.	.
4C	8c	.	4g	V	4CC	4C 4e 4g
.	8B-	8e	.	.	.	.
4FF;	4A;	4c;	4f;	I;	4FF;	4F; 4a; 4cc;
4F	4A	4f	4cc	I	4FF	4F 4a 4cc
=5	=5	=5	=5	=5	=5	=5
!!linebreak: 2!!linebreak: 2
8BB-	4B-	4f	4dd	IV	4BB-	4B- 4dd 4ff
8C	.	.	.	.	.	.
8D	8F	4f	4dd	IVb	4BB-	4b- 4D 4ff
8E	8G	.	.	.	.	.
8F	4A	4.c	4a	I	4FF	4F 4a 4cc
8G	.	.	.	.	.	.
8A	8f	.	4cc	Ib	8FF	8f 8A 8cc
8F#	8e-	[8a	.	viioD7/ii	8FF#	8F# 8a 8cc 8ee-
=6	=6	=6	=6	=6	=6	=6
8G	4d	8a]	4b-	ii	4GG	4G 4b- 4dd
8A	.	16g	.	.	.	.
.	.	16f#	.	.	.	.
8B-	4d	[4g	4b-	iib	4GG	4g 4B- 4dd
8c	.	.	.	.	.	.
4d;	4d;	8g]	4a;	V/ii;	4DD;	4D; 4f#; 4a;
.	.	8f#;	.	.	.	.
4D	4d	4a	4ffn	vi	4DD	4D 4f 4a
=7	=7	=7	=7	=7	=7	=7
4A	4c	8a	4ee	iii	4AA	4A 4cc 4ee
.	.	8g	.	.	.	.
4B-	8d	8f	4dd	IV	4BB-	4B- 4dd 4ff
.	8e	8g	.	.	.	.
8F	4f	8a	4.cc	I	4FF	4F 4a 4cc
8E	.	8g	.	.	.	.
4D	4A	4f	.	vi7	4DD	4D 4f 4a 4cc
.	.	.	8dd	.	.	.
=8	=8	=8	=8	=8	=8	=8
4G	4.B-	4.f	8b-	ii7	4GG	4G 4b- 4dd 4ff
.	.	.	8a	.	.	.
4C	.	.	4g	V	4CC	4C 4e 4g
.	16c	8e	.	.	.	.
.	16B-	.	.	.	.	.
4F;	4A;	4c;	4f;	I;	4FF;	4F; 4a; 4cc;
==	==	==	==	==	==	==
*-	*-	*-	*-	*-	*-	*-
!!!CDT: 1685/3//-1750/7/28!!!CDT: 1685/3//-1750/7/28
!!!OCY: Deutschland!!!OCY: Deutschland
!!!AGN: chorale!!!AGN: chorale
!!!AST: Baroque!!!AST: Baroque
!!!AIN: vox!!!AIN: vox
!!!YOY: 1941!!!YOY: 1941
!!!PPP: New York; London!!!PPP: New York; London
!!!PPR: G. Schirmer!!!PPR: G. Schirmer
!!!ENC: David Huron!!!ENC: David Huron
!!!EED: David Huron!!!EED: David Huron
!!!YEN: United States of America!!!YEN: United States of America
!!!YER: 1992!!!YER: 1992
!!!YEC: Copyright 1992 David Huron!!!YEC: Copyright 1992 David Huron
!!!YEM: Rights to all derivative electronic formats reserved.!!!YEM: Rights to all derivative electronic formats reserved.
!!!YER: March 20, 1996!!!YER: March 20, 1996
!!!AMT: simple quadruple!!!AMT: simple quadruple
!!!EEV: 1.1!!!EEV: 1.1
!!chor2scor: -l 2 -s 0.6 -o %b.pmx!!chor2scor: -l 2 -s 0.6 -o %b.pmx
